X:812
T:Rinettan's Daughter
R:Strathspey
B:The Athole Collection
M:C
L:1/8
K:A Minor
c|E/F/G cG A2 A<B|c<G A>G c>G E2|G>Ac>G A/A/A A>B|c>d e>d c>AA:|
a|geea g>ee>d|c<GA<G c>G E2|G>Ac>G A/A/A A>B|c>de>d c>A Aa|
g<e e>a g<e e>d|c>GG>B c>G E2|G>Ac>G A/A/A A>B|c>de>g d<ec>G||

